X:177
T: Absage
N: A0214
O: Europa, Mitteleuropa, Deutschland
N: Forster III. 1552 No. 33.
R: Romanze, Ballade, Lied
M: 4/2
L: 1/4
K: G
G2 | G2G2G2G2 | =F2F2D2
D2 | _B3Bc2B2 | A4G2
G2 | G2G2G2G2 | =F2F2D2
D2 | _B3Bc2B2 | A4G2
G2 | _B3cd2B2 | c4G4 |
c3c_B2AG | =F3GA2
_B2 | c2G2_B2A2 | G6

@@@ Tune index: 177
